; generated by PrusaSlicer 2.4.2 on 2022-05-25 at 12:12:41 UTC

; 

; external perimeters extrusion width = 0.45mm
; perimeters extrusion width = 0.45mm
; infill extrusion width = 0.45mm
; solid infill extrusion width = 0.45mm
; top infill extrusion width = 0.40mm
; support material extrusion width = 0.35mm
; first layer extrusion width = 0.42mm

M107
M190 S65 ; set bed temperature and wait for it to be reached
M104 S210 ; set temperature
;TYPE:Custom
G28 ; home all axes
G1 Z5 F5000 ; lift nozzle
M109 S210 ; set temperature and wait for it to be reached
G21 ; set units to millimeters
G90 ; use absolute coordinates
M82 ; use absolute distances for extrusion
G92 E0
; Filament gcode
M107
;LAYER_CHANGE
;Z:0.12
;HEIGHT:0.12
G1 Z.12 F7800
G1 E-2 F2400
G92 E0
G1 X90.808 Y53.751 F7800
G1 E2 F2400
;TYPE:Skirt/Brim
;WIDTH:0.42
G1 F1800
G1 X91.371 Y52.8 E2.02174
G1 X93.255 Y50.917 E2.07412
G1 X95.103 Y49.63 E2.11843
G1 X97.776 Y49.044 E2.17225
G1 X102.224 Y49.044 E2.25974
G1 X104.442 Y49.441 E2.30405
G1 X106.745 Y50.917 E2.35786
G1 X108.629 Y52.8 E2.41024
G1 X110.246 Y55.533 E2.47271
G1 X126.99 Y113.041 E3.65081
G1 X127.556 Y115.757 E3.70537
G1 X127.77 Y117.46 E3.73913
G1 X127.892 Y119.91 E3.78738
G1 X127.85 Y121.619 E3.821
G1 X127.605 Y124.071 E3.86947
G1 X127.07 Y126.804 E3.92426
G1 X126.265 Y129.468 E3.979
G1 X125.2 Y132.035 E4.03365
G1 X123.883 Y134.486 E4.08839
G1 X122.331 Y136.791 E4.14304
G1 X120.556 Y138.931 E4.19773
G1 X118.577 Y140.885 E4.25242
G1 X116.413 Y142.631 E4.30712
G1 X114.084 Y144.154 E4.36185
G1 X111.617 Y145.437 E4.41655
G1 X109.041 Y146.465 E4.4711
G1 X106.369 Y147.234 E4.52579
G1 X103.626 Y147.734 E4.58063
G1 X100.862 Y147.958 E4.63518
G1 X98.075 Y147.905 E4.69001
G1 X95.321 Y147.576 E4.74457
G1 X92.599 Y146.971 E4.7994
G1 X89.96 Y146.101 E4.85405
G1 X88.383 Y145.437 E4.88772
G1 X85.916 Y144.154 E4.94241
G1 X83.596 Y142.637 E4.99692
G1 X81.425 Y140.886 E5.0518
G1 X79.445 Y138.933 E5.10649
G1 X77.67 Y136.793 E5.16118
G1 X76.122 Y134.494 E5.21569
G1 X74.805 Y132.045 E5.27039
G1 X73.739 Y129.477 E5.32508
G1 X72.933 Y126.815 E5.37977
G1 X72.397 Y124.087 E5.43447
G1 X72.135 Y121.319 E5.48916
G1 X72.15 Y118.538 E5.54385
G1 X72.442 Y115.773 E5.59854
G1 X73.01 Y113.041 E5.65342
G1 X89.754 Y55.533 E6.83152
G1 X90.778 Y53.803 E6.87107
G1 E4.87107 F2400
G92 E0
G1 X100.547 Y58.564 F7800
G1 E2 F2400
;TYPE:Support material
G1 F1800
G1 X100.547 Y58.857 E2.00576
G1 X100.967 Y58.857 E2.01402
G1 X100.967 Y58.438 E2.02225
G1 X101.107 Y58.564 E2.02596
G1 X101.109 Y98.177 E2.80511
G1 X100.483 Y98.149 E2.81744
G1 X99.464 Y98.15 E2.83748
G1 X98.891 Y98.177 E2.84876
G1 X98.893 Y58.564 E3.62792
G1 X99.033 Y58.438 E3.63162
G1 X99.033 Y58.863 E3.63998
G1 X99.453 Y58.863 E3.64825
G1 X99.453 Y58.564 E3.65413
G1 X99.579 Y58.438 E3.65763
G1 X100.421 Y58.438 E3.67419
G1 X100.505 Y58.522 E3.67653
G1 X100.438 Y97.972 F7800
G1 F1800
G1 X100.438 Y59.212 E4.4389
G1 X100.192 Y59.212 E4.44374
G1 X100.192 Y58.793 E4.45197
G1 X100 Y58.793 E4.45575
G1 X100 Y97.794 E5.22287
G1 X99.562 Y97.794 E5.23148
G1 X99.562 Y59.041 E5.99373
G1 E3.99373 F2400
G92 E0
G1 X104.107 Y57.322 F7800
G1 E2 F2400
G1 F1800
G1 X104.109 Y95.794 E2.75671
G1 X104.595 Y95.828 E2.76629
G1 X104.587 Y95.945 E2.76859
G1 X105.797 Y96.096 E2.79259
G1 X105.789 Y96.164 E2.79394
G1 X106.159 Y96.22 E2.80129
G1 X105.755 Y98.916 E2.8549
G1 X104.861 Y98.689 E2.87302
G1 X103.815 Y98.478 E2.89403
G1 X103.196 Y98.384 E2.90633
G1 X103.196 Y57.264 E3.71512
G1 X96.804 Y57.264 E3.84086
G1 X96.804 Y98.384 E4.64965
G1 X96.184 Y98.478 E4.66197
G1 X95.139 Y98.689 E4.68295
G1 X94.245 Y98.916 E4.70108
G1 X93.837 Y96.227 E4.75458
G1 X94.239 Y96.165 E4.76257
G1 X94.229 Y96.084 E4.76418
G1 X95.473 Y95.933 E4.78882
G1 X95.466 Y95.824 E4.79098
G1 X95.891 Y95.794 E4.79937
G1 X95.893 Y57.322 E5.55608
G1 X97.776 Y55.438 E5.60847
G1 X102.224 Y55.438 E5.69596
G1 X104.065 Y57.28 E5.74718
G1 E3.74718 F2400
G92 E0
G1 X105.695 Y98.119 F7800
G1 E2 F2400
G1 F1800
G1 X105.695 Y96.509 E2.03166
G1 X105.395 Y96.464 E2.03761
G1 X105.403 Y96.405 E2.03879
G1 X105.257 Y96.386 E2.04169
G1 X105.257 Y98.423 E2.08174
G1 X104.819 Y98.318 E2.0906
G1 X104.819 Y96.331 E2.12968
G1 X104.381 Y96.277 E2.13836
G1 X104.381 Y98.23 E2.17678
G1 X103.942 Y98.141 E2.18557
G1 X103.942 Y95.96 E2.22849
G1 X103.066 Y57.087 F7800
G1 F1800
G1 X103.066 Y56.783 E2.23447
G1 X102.628 Y56.345 E2.24665
G1 X102.628 Y56.909 E2.25776
G1 X102.19 Y56.909 E2.26638
G1 X102.19 Y55.906 E2.2861
G1 X102.077 Y55.793 E2.28925
G1 X101.752 Y55.793 E2.29564
G1 X101.752 Y56.909 E2.31759
G1 X101.314 Y56.909 E2.3262
G1 X101.314 Y55.793 E2.34816
G1 X100.876 Y55.793 E2.35677
G1 X100.876 Y56.909 E2.37872
G1 X100.438 Y56.909 E2.38734
G1 X100.438 Y55.793 E2.40929
G1 X100 Y55.793 E2.4179
G1 X100 Y56.909 E2.43985
G1 X99.562 Y56.909 E2.44847
G1 X99.562 Y55.793 E2.47042
G1 X99.124 Y55.793 E2.47904
G1 X99.124 Y56.909 E2.50099
G1 X98.686 Y56.909 E2.5096
G1 X98.686 Y55.793 E2.53155
G1 X98.248 Y55.793 E2.54017
G1 X98.248 Y56.909 E2.56212
G1 X97.81 Y56.909 E2.57074
G1 X97.81 Y55.906 E2.59046
G1 X97.372 Y56.345 E2.60264
G1 X97.372 Y56.909 E2.61375
G1 X96.934 Y56.909 E2.62237
G1 X96.934 Y56.532 E2.6298
G1 X96.058 Y98.322 F7800
G1 F1800
G1 X96.058 Y96.138 E2.67277
G1 X95.843 Y96.153 E2.67699
G1 X95.85 Y96.245 E2.6788
G1 X95.619 Y96.273 E2.68337
G1 X95.619 Y98.23 E2.72186
G1 X95.181 Y98.318 E2.73065
G1 X95.181 Y96.326 E2.76985
G1 X94.743 Y96.379 E2.77853
G1 X94.743 Y98.423 E2.81872
G1 X94.537 Y98.475 E2.82291
G1 X94.305 Y96.946 E2.85332
G1 X94.305 Y96.335 E2.86535
G1 E.86535 F2400
G92 E0
G1 X97.244 Y98.513 F7800
G1 E2 F2400
;TYPE:Support material interface
;WIDTH:0.35
G1 F1800
G1 X97.244 Y57.636 E2.66125
G1 X97.568 Y57.636 E2.6665
G1 X97.568 Y98.329 E3.32478
G1 X97.892 Y98.297 E3.33005
G1 X97.892 Y57.636 E3.98781
G1 X98.217 Y57.636 E3.99306
G1 X98.217 Y98.265 E4.65029
G1 X98.519 Y98.242 E4.6552
G1 X98.521 Y58.41 E5.29955
G1 X98.541 Y58.39 E5.30002
G1 X98.541 Y57.636 E5.31221
G1 X98.865 Y57.636 E5.31745
G1 X98.865 Y58.066 E5.32441
G1 X99.189 Y58.066 E5.32965
G1 X99.189 Y57.636 E5.33661
G1 X99.514 Y57.636 E5.34185
G1 X99.514 Y58.066 E5.34881
G1 X99.838 Y58.066 E5.35405
G1 X99.838 Y57.636 E5.36101
G1 X100.162 Y57.636 E5.36625
G1 X100.162 Y58.066 E5.37321
G1 X100.486 Y58.066 E5.37845
G1 X100.486 Y57.636 E5.38541
G1 X100.811 Y57.636 E5.39065
G1 X100.811 Y58.066 E5.39761
G1 X101.135 Y58.066 E5.40285
G1 X101.135 Y57.636 E5.40981
G1 X101.459 Y57.636 E5.41506
G1 X101.459 Y58.39 E5.42724
G1 X101.479 Y58.41 E5.42771
G1 X101.481 Y98.242 E6.07206
G1 X101.783 Y98.265 E6.07696
G1 X101.783 Y57.636 E6.7342
G1 X102.108 Y57.636 E6.73944
G1 X102.108 Y98.297 E7.3972
G1 X102.432 Y98.329 E7.40247
G1 X102.432 Y57.636 E8.06076
G1 X102.756 Y57.636 E8.066
G1 X102.756 Y98.513 E8.72725
G1 E6.72725 F2400
G92 E0
G1 X102.195 Y102.567 F7800
G1 E2 F2400
;TYPE:Perimeter
;WIDTH:0.42
G1 F1800
G1 X103.065 Y102.698 E2.01731
G1 X103.927 Y102.872 E2.03462
G1 X104.78 Y103.089 E2.05193
G1 X105.621 Y103.349 E2.06924
G1 X106.448 Y103.65 E2.08654
G1 X107.259 Y103.991 E2.10385
G1 X108.052 Y104.373 E2.12116
G1 X108.824 Y104.794 E2.13847
G1 X109.575 Y105.253 E2.15578
G1 X110.302 Y105.749 E2.17309
G1 X111.004 Y106.28 E2.1904
G1 X111.678 Y106.846 E2.2077
G1 X112.323 Y107.444 E2.22501
G1 X112.938 Y108.074 E2.24232
G1 X113.52 Y108.734 E2.25963
G1 X114.068 Y109.422 E2.27694
G1 X114.582 Y110.136 E2.29425
G1 X115.06 Y110.876 E2.31156
G1 X115.5 Y111.638 E2.32887
G1 X115.901 Y112.421 E2.34617
G1 X116.263 Y113.223 E2.36348
G1 X116.584 Y114.042 E2.38079
G1 X116.865 Y114.876 E2.3981
G1 X117.103 Y115.723 E2.41541
G1 X117.299 Y116.581 E2.43272
G1 X117.452 Y117.448 E2.45003
G1 X117.561 Y118.321 E2.46734
G1 X117.627 Y119.199 E2.48464
G1 X117.649 Y120.078 E2.50195
G1 X117.627 Y120.958 E2.51926
G1 X117.561 Y121.836 E2.53657
G1 X117.452 Y122.709 E2.55388
G1 X117.299 Y123.575 E2.57119
G1 X117.103 Y124.433 E2.5885
G1 X116.865 Y125.28 E2.6058
G1 X116.584 Y126.115 E2.62311
G1 X116.263 Y126.934 E2.64042
G1 X115.901 Y127.736 E2.65773
G1 X115.5 Y128.519 E2.67504
G1 X115.06 Y129.281 E2.69235
G1 X114.585 Y130.015 E2.70954
G1 X114.069 Y130.735 E2.72696
G1 X113.52 Y131.423 E2.74427
G1 X112.938 Y132.083 E2.76158
G1 X112.323 Y132.713 E2.77889
G1 X111.678 Y133.311 E2.7962
G1 X111.004 Y133.877 E2.81351
G1 X110.302 Y134.408 E2.83082
G1 X109.575 Y134.904 E2.84813
G1 X108.824 Y135.363 E2.86543
G1 X108.052 Y135.784 E2.88274
G1 X107.259 Y136.165 E2.90005
G1 X106.448 Y136.507 E2.91736
G1 X105.621 Y136.808 E2.93467
G1 X104.78 Y137.068 E2.95198
G1 X103.927 Y137.285 E2.96929
G1 X103.065 Y137.459 E2.9866
G1 X102.195 Y137.59 E3.0039
G1 X101.319 Y137.678 E3.02121
G1 X100.44 Y137.722 E3.03852
G1 X99.56 Y137.722 E3.05583
G1 X98.681 Y137.678 E3.07314
G1 X97.805 Y137.59 E3.09045
G1 X96.935 Y137.459 E3.10776
G1 X96.073 Y137.285 E3.12507
G1 X95.22 Y137.068 E3.14237
G1 X94.379 Y136.808 E3.15968
G1 X93.552 Y136.507 E3.17699
G1 X92.741 Y136.165 E3.1943
G1 X91.948 Y135.784 E3.21161
G1 X91.176 Y135.363 E3.22892
G1 X90.425 Y134.904 E3.24623
G1 X89.698 Y134.408 E3.26353
G1 X88.996 Y133.877 E3.28084
G1 X88.322 Y133.311 E3.29815
G1 X87.677 Y132.713 E3.31546
G1 X87.063 Y132.083 E3.33277
G1 X86.48 Y131.423 E3.35008
G1 X85.932 Y130.735 E3.36739
G1 X85.418 Y130.02 E3.3847
G1 X84.94 Y129.281 E3.402
G1 X84.5 Y128.519 E3.41931
G1 X84.099 Y127.736 E3.43662
G1 X83.737 Y126.934 E3.45393
G1 X83.416 Y126.115 E3.47124
G1 X83.135 Y125.28 E3.48855
G1 X82.897 Y124.433 E3.50586
G1 X82.701 Y123.575 E3.52316
G1 X82.548 Y122.709 E3.54047
G1 X82.439 Y121.836 E3.55778
G1 X82.373 Y120.958 E3.57509
G1 X82.351 Y120.078 E3.5924
G1 X82.373 Y119.199 E3.60971
G1 X82.439 Y118.321 E3.62702
G1 X82.548 Y117.448 E3.64433
G1 X82.701 Y116.581 E3.66163
G1 X82.897 Y115.723 E3.67894
G1 X83.135 Y114.876 E3.69625
G1 X83.416 Y114.042 E3.71356
G1 X83.737 Y113.223 E3.73087
G1 X84.099 Y112.421 E3.74818
G1 X84.5 Y111.638 E3.76549
G1 X84.94 Y110.876 E3.78279
G1 X85.418 Y110.136 E3.8001
G1 X85.932 Y109.422 E3.81741
G1 X86.48 Y108.734 E3.83472
G1 X87.062 Y108.074 E3.85203
G1 X87.677 Y107.444 E3.86934
G1 X88.322 Y106.846 E3.88665
G1 X88.996 Y106.28 E3.90396
G1 X89.698 Y105.749 E3.92126
G1 X90.425 Y105.253 E3.93857
G1 X91.176 Y104.794 E3.95588
G1 X91.948 Y104.373 E3.97319
G1 X92.741 Y103.991 E3.9905
G1 X93.552 Y103.65 E4.00781
G1 X94.379 Y103.349 E4.02512
G1 X95.22 Y103.089 E4.04242
G1 X96.073 Y102.872 E4.05973
G1 X96.935 Y102.698 E4.07704
G1 X97.805 Y102.567 E4.09435
G1 X98.682 Y102.479 E4.11168
G1 X99.611 Y102.434 E4.12998
G1 X100.44 Y102.435 E4.14628
G1 X101.319 Y102.479 E4.16359
G1 X102.135 Y102.561 E4.17971
G1 X102.145 Y102.958 F7800
G1 F1800
G1 X102.996 Y103.086 E4.19664
G1 X103.839 Y103.257 E4.21356
G1 X104.673 Y103.469 E4.23048
G1 X105.495 Y103.722 E4.2474
G1 X106.304 Y104.017 E4.26432
G1 X107.097 Y104.351 E4.28125
G1 X107.872 Y104.724 E4.29817
G1 X108.627 Y105.136 E4.31509
G1 X109.361 Y105.584 E4.33201
G1 X110.072 Y106.069 E4.34893
G1 X110.758 Y106.588 E4.36586
G1 X111.417 Y107.141 E4.38278
G1 X112.048 Y107.726 E4.3997
G1 X112.648 Y108.342 E4.41662
G1 X113.218 Y108.987 E4.43354
G1 X113.754 Y109.66 E4.45046
G1 X114.256 Y110.359 E4.46739
G1 X114.723 Y111.081 E4.48431
G1 X115.153 Y111.826 E4.50123
G1 X115.546 Y112.592 E4.51815
G1 X115.9 Y113.376 E4.53507
G1 X116.214 Y114.177 E4.552
G1 X116.488 Y114.993 E4.56892
G1 X116.721 Y115.821 E4.58584
G1 X116.912 Y116.659 E4.60276
G1 X117.062 Y117.507 E4.61968
G1 X117.169 Y118.36 E4.63661
G1 X117.233 Y119.218 E4.65353
G1 X117.254 Y120.078 E4.67045
G1 X117.233 Y120.938 E4.68737
G1 X117.169 Y121.796 E4.70429
G1 X117.062 Y122.65 E4.72121
G1 X116.912 Y123.497 E4.73814
G1 X116.721 Y124.336 E4.75506
G1 X116.488 Y125.164 E4.77198
G1 X116.214 Y125.98 E4.7889
G1 X115.9 Y126.781 E4.80582
G1 X115.546 Y127.565 E4.82275
G1 X115.153 Y128.33 E4.83967
G1 X114.723 Y129.075 E4.85659
G1 X114.259 Y129.793 E4.8734
G1 X113.754 Y130.497 E4.89043
G1 X113.218 Y131.169 E4.90736
G1 X112.648 Y131.814 E4.92428
G1 X112.048 Y132.43 E4.9412
G1 X111.417 Y133.015 E4.95812
G1 X110.758 Y133.568 E4.97504
G1 X110.072 Y134.088 E4.99197
G1 X109.361 Y134.573 E5.00889
G1 X108.627 Y135.021 E5.02581
G1 X107.872 Y135.433 E5.04273
G1 X107.097 Y135.806 E5.05965
G1 X106.304 Y136.14 E5.07658
G1 X105.495 Y136.434 E5.0935
G1 X104.673 Y136.688 E5.11042
G1 X103.839 Y136.9 E5.12734
G1 X102.996 Y137.071 E5.14426
G1 X102.145 Y137.199 E5.16118
G1 X101.289 Y137.285 E5.17811
G1 X100.43 Y137.327 E5.19503
G1 X99.57 Y137.327 E5.21195
G1 X98.711 Y137.285 E5.22887
G1 X97.855 Y137.199 E5.24579
G1 X97.004 Y137.071 E5.26272
G1 X96.16 Y136.9 E5.27964
G1 X95.327 Y136.688 E5.29656
G1 X94.505 Y136.434 E5.31348
G1 X93.696 Y136.14 E5.3304
G1 X92.903 Y135.806 E5.34733
G1 X92.128 Y135.433 E5.36425
G1 X91.373 Y135.021 E5.38117
G1 X90.639 Y134.573 E5.39809
G1 X89.928 Y134.088 E5.41501
G1 X89.242 Y133.568 E5.43194
G1 X88.583 Y133.015 E5.44886
G1 X87.952 Y132.43 E5.46578
G1 X87.352 Y131.814 E5.4827
G1 X86.782 Y131.169 E5.49962
G1 X86.246 Y130.497 E5.51654
G1 X85.744 Y129.798 E5.53347
G1 X85.277 Y129.075 E5.55039
G1 X84.847 Y128.33 E5.56731
G1 X84.454 Y127.565 E5.58423
G1 X84.1 Y126.781 E5.60115
G1 X83.786 Y125.98 E5.61808
G1 X83.512 Y125.164 E5.635
G1 X83.279 Y124.336 E5.65192
G1 X83.088 Y123.497 E5.66884
G1 X82.938 Y122.65 E5.68576
G1 X82.831 Y121.796 E5.70269
G1 X82.767 Y120.938 E5.71961
G1 X82.746 Y120.078 E5.73653
G1 X82.767 Y119.218 E5.75345
G1 X82.831 Y118.36 E5.77037
G1 X82.938 Y117.507 E5.7873
G1 X83.088 Y116.659 E5.80422
G1 X83.279 Y115.821 E5.82114
G1 X83.512 Y114.993 E5.83806
G1 X83.786 Y114.177 E5.85498
G1 X84.1 Y113.376 E5.87191
G1 X84.454 Y112.592 E5.88883
G1 X84.847 Y111.826 E5.90575
G1 X85.277 Y111.081 E5.92267
G1 X85.744 Y110.359 E5.93959
G1 X86.246 Y109.66 E5.95651
G1 X86.782 Y108.987 E5.97344
G1 X87.352 Y108.342 E5.99036
G1 X87.952 Y107.726 E6.00728
G1 X88.583 Y107.141 E6.0242
G1 X89.242 Y106.588 E6.04112
G1 X89.928 Y106.069 E6.05805
G1 X90.639 Y105.584 E6.07497
G1 X91.373 Y105.136 E6.09189
G1 X92.128 Y104.724 E6.10881
G1 X92.903 Y104.351 E6.12573
G1 X93.696 Y104.017 E6.14266
G1 X94.505 Y103.722 E6.15958
G1 X95.327 Y103.469 E6.1765
G1 X96.161 Y103.257 E6.19342
G1 X97.004 Y103.086 E6.21034
G1 X97.855 Y102.958 E6.22727
G1 X98.711 Y102.872 E6.2442
G1 X99.621 Y102.829 E6.26211
G1 X100.43 Y102.829 E6.27804
G1 X101.289 Y102.872 E6.29495
G1 X102.086 Y102.952 E6.31069
G1 X102.096 Y103.349 F7800
;TYPE:External perimeter
G1 F1800
G1 X102.928 Y103.474 E6.32723
G1 X103.752 Y103.641 E6.34376
G1 X104.566 Y103.848 E6.3603
G1 X105.37 Y104.096 E6.37683
G1 X106.16 Y104.384 E6.39337
G1 X106.934 Y104.71 E6.40991
G1 X107.692 Y105.075 E6.42644
G1 X108.43 Y105.477 E6.44298
G1 X109.147 Y105.915 E6.45951
G1 X109.842 Y106.389 E6.47605
G1 X110.512 Y106.897 E6.49258
G1 X111.156 Y107.437 E6.50912
G1 X111.772 Y108.009 E6.52565
G1 X112.359 Y108.611 E6.54219
G1 X112.916 Y109.241 E6.55872
G1 X113.44 Y109.898 E6.57526
G1 X113.93 Y110.581 E6.59179
G1 X114.387 Y111.287 E6.60833
G1 X114.807 Y112.015 E6.62486
G1 X115.19 Y112.763 E6.6414
G1 X115.536 Y113.529 E6.65793
G1 X115.843 Y114.312 E6.67447
G1 X116.111 Y115.109 E6.691
G1 X116.339 Y115.918 E6.70754
G1 X116.526 Y116.738 E6.72407
G1 X116.672 Y117.565 E6.74061
G1 X116.776 Y118.4 E6.75714
G1 X116.839 Y119.238 E6.77368
G1 X116.86 Y120.078 E6.79021
G1 X116.839 Y120.919 E6.80675
G1 X116.776 Y121.757 E6.82328
G1 X116.672 Y122.591 E6.83982
G1 X116.526 Y123.419 E6.85635
G1 X116.339 Y124.239 E6.87289
G1 X116.111 Y125.048 E6.88942
G1 X115.843 Y125.845 E6.90596
G1 X115.536 Y126.627 E6.92249
G1 X115.19 Y127.394 E6.93903
G1 X114.807 Y128.142 E6.95557
G1 X114.387 Y128.87 E6.9721
G1 X113.933 Y129.571 E6.98853
G1 X113.44 Y130.259 E7.00517
G1 X112.916 Y130.916 E7.02171
G1 X112.359 Y131.546 E7.03824
G1 X111.772 Y132.148 E7.05478
G1 X111.156 Y132.72 E7.07131
G1 X110.512 Y133.26 E7.08785
G1 X109.842 Y133.768 E7.10438
G1 X109.147 Y134.241 E7.12092
G1 X108.43 Y134.68 E7.13745
G1 X107.692 Y135.082 E7.15399
G1 X106.934 Y135.446 E7.17052
G1 X106.16 Y135.773 E7.18706
G1 X105.37 Y136.06 E7.20359
G1 X104.566 Y136.308 E7.22013
G1 X103.752 Y136.516 E7.23666
G1 X102.928 Y136.682 E7.2532
G1 X102.096 Y136.808 E7.26973
G1 X101.26 Y136.891 E7.28627
